X:10101
T:Maid in a Box
C:Trad
S:Aly Bain Book
I:speed 300
M:4/4
K:G
|: A2 cA EAce | fefg aecB | Acea fecA | BFBA GEFG |
A z cA EAce | fefg aecB | Acea fecA | BAGB A2 A2 :|
|: (3Ace | a z (3Ace g z (3Ace | f z (3Acf e z (3Ace | a z (3Ace g z eg | fbba gefg |
a2 fa gbeg | agaf ecAc | defd ceaf | ecdB A2 :|
